X:113
T: Kincsem, komámasszony...
M: 2/4
L: 1/4
K: F
gf | d/e/f | dA | dd | 
fe | ce | cG | cc | 
dB | G/A/B | AA | A/d/ A | 
dB | G/A/B | G G | G/A/G | 

